X:1
T:Title
%%score { ( 1 3 ) | ( 2 4 ) }
L:1/8
M:4/4
K:D
V:1 treble nm="Grand Piano"
V:3 treble 
V:2 bass 
V:4 bass 
V:1
 z4 z2[Q:1/4=92] [FA]>F | D2 D>E F<[FA] [FA]>[A,DF] | %2
[M:3/4] [G,CE][G,CE] [A,CF]>[K:bass][G,CE] [F,D]2 |[M:1/4][K:treble] [A,DF][DFA] | %4
[M:4/4] [DGB]2 [DGB]>[Gc] [Fd][FA][EA][FB] |[M:3/4] c>d cB A2 |[M:1/4] Bc | %7
[M:4/4] [Fd]2 [Fd]>[Ac] [Ac][GB][^GB][GB] |[M:3/4] [^Ge]>[Bd] [Ac][GB] c2 |[M:1/4] AA | %10
[M:4/4] [Ad]2 [FA]>[GB] [FA][A,DF][K:bass][F,D][^G,DE] | %11
[M:7/8][K:treble] [A,DF][A,EG][A,DF]>[K:bass][G,CE] [F,D]3 |[M:1/4][K:treble] [A,DF]>[A,EG] | %13
[M:4/4] [FA]6 z2 | z2 [FA]4 z2 | [GB]6 z2 | [Ac]6 z2 | d6 z2 | z2 [Bd]4 z2 | %19
[M:9/8] z2 [FA]- [FA]3- [FA] z[K:bass] z |[M:3/4] [F,D]6 |] %21
V:2
 z4 z2 [D,A,]>[D,A,D] | [D,F,]2 [D,F,]>[D,G,D] [D,A,D]<[D,D] [D,D]>D, |[M:3/4] A,,A,, A,,>A,, D,2 | %3
[M:1/4] D,D, |[M:4/4] G,2 G,>[E,A,] [D,A,][D,D][C,A,][D,A,] | %5
[M:3/4] [E,A,E]>[E,B,E] [E,A,E][E,^G,D][K:treble] [A,C]2 |[M:1/4] [A,G][A,G] | %7
[M:4/4][K:bass] [D,A,]2 [D,A,]>[F,D] [G,D][G,D][E,E][E,E] | %8
[M:3/4] [E,E]>[E,E] [E,E][E,E][K:treble] [A,EA]2 |[M:1/4] [A,C][K:bass][G,C] | %10
[M:4/4] [F,D]2 [D,D]>[D,D] [D,D]D,D,B,, |[M:7/8] A,,A,,A,,>A,, D,3 |[M:1/4] D,>D, | %13
[M:4/4] D,2 D,>D, D,D,D,[D,A,] | [D,A,]2 [D,D]>D, D,D,D,D, | G,2 G,>G, G,2 E,E, | %16
 A,2 A,>A, A,2[K:treble] [A,EG][A,EG] | F6[K:bass] z2 | G,2 G,>G, G,G,[K:treble][G,DG][G,B,E] | %19
[M:9/8][K:bass] [A,D]2 [A,,A,] A,, A,,2- A,,A,,A,, |[M:3/4] D,6 |] %21
V:3
 x8 | x8 |[M:3/4] x7/2[K:bass] x5/2 |[M:1/4][K:treble] x2 |[M:4/4] x8 |[M:3/4] x6 |[M:1/4] x2 | %7
[M:4/4] x8 |[M:3/4] x6 |[M:1/4] x2 |[M:4/4] x6[K:bass] x2 |[M:7/8][K:treble] x7/2[K:bass] x7/2 | %12
[M:1/4][K:treble] x2 |[M:4/4] D2 D>D DD[DGB][Gc] | [Fd]2 z z/ D/ DD[DFA][DFA] | %15
 D2 D>D D2 [E^GB][EBd] | E2 E>E E2 Bc | z2 D>D DD[DAd][DAc] | [DGB]2 D>D DDBG | %19
[M:9/8] .F3 A, A,2- A,[A,EG][K:bass][G,CE] |[M:3/4] x6 |] %21
V:4
 x8 | x8 |[M:3/4] x6 |[M:1/4] x2 |[M:4/4] x8 |[M:3/4] x4[K:treble] x2 |[M:1/4] x2 | %7
[M:4/4][K:bass] x8 |[M:3/4] x4[K:treble] x2 |[M:1/4] x[K:bass] x |[M:4/4] x8 |[M:7/8] x7 | %12
[M:1/4] x2 |[M:4/4] x8 | x8 | x8 | x6[K:treble] x2 | [B,D]2 B,>B,[K:bass] B,B,F,F, | %18
 x6[K:treble] x2 |[M:9/8][K:bass] x9 |[M:3/4] x6 |] %21

